public/assets/images/icons/blue/visibility-visible/twitter2.svg

<svg width="16" height="16" xmlns="http://www.w3.org/2000/svg" viewBox="0 0 16 16" shape-rendering="geometricPrecision" fill="#24437c"><defs><mask id="a"><rect fill="#fff" width="100%" height="100%"/><path d="M12.997.858a4.809 4.809 0 0 0-4.253 2.563 4.81 4.81 0 0 0 8.506 0A4.812 4.812 0 0 0 12.997.858z" fill="#000"/></mask></defs><path d="M12.971 1.607c-1.315 0-2.454.74-3.029 1.825a3.425 3.425 0 0 0 6.058 0 3.43 3.43 0 0 0-3.029-1.825z" fill="#cb1800"/><g mask="url(#a)"><path d="M13.942 1.97v-.008H2V13.97h12v-12h-.058zm-.942 11H3v-10h10v10z"/><path d="M7.912 11.97h2.1c.614 0 .91-.382.91-.952s-.428-.903-.928-.903H8.015c-.928 0-1.213-.569-1.213-1.141v-.571h3.192c.643 0 1.035-.32 1.035-.963 0-.537-.457-.892-1.099-.892H6.784s-.018-.816-.018-1.457c0-.553-.306-1.047-.917-1.047-.57 0-.85.433-.85 1.129v4.088c0 2.006 1.115 2.709 2.913 2.709z"/></g></svg>

<?xml version="1.0"?><!DOCTYPE svg PUBLIC "-//W3C//DTD SVG 1.1//EN" "http://www.w3.org/Graphics/SVG/1.1/DTD/svg11.dtd"><svg width="16px" height="16px" xmlns="http://www.w3.org/2000/svg" viewBox="0 0 16 16" shape-rendering="geometricPrecision" fill="#24437c"><defs><mask id="visibility-visible-path"><rect fill="#fff" width="100%" height="100%"/><path d="M12.997,0.858c-1.845,0-3.446,1.039-4.253,2.563c0.808,1.523,2.408,2.562,4.253,2.562 c1.844,0,3.444-1.039,4.253-2.562C16.441,1.897,14.841,0.858,12.997,0.858z" fill="#000"/></mask></defs><path display="inline" d="M12.971,1.607c-1.315,0-2.454,0.74-3.029,1.825 c0.575,1.085,1.715,1.825,3.029,1.825c1.314,0,2.453-0.74,3.029-1.825C15.424,2.348,14.284,1.607,12.971,1.607z" fill="#cb1800"/><g mask="url(#visibility-visible-path)"><path d="M13.942,1.97V1.962H2V1.97h0v12h0h1h10h1v-1v-11H13.942z M13,12.97H3v-10h10V12.97z"/><path d="M7.912,11.97c1.284,0,1.315,0,2.1,0c0.614,0,0.91-0.382,0.91-0.952c0-0.57-0.428-0.903-0.928-0.903 c-0.499,0-0.98,0-1.979,0c-0.928,0-1.213-0.569-1.213-1.141s0-0.571,0-0.571s2.55,0,3.192,0c0.643,0,1.035-0.32,1.035-0.963 c0-0.537-0.457-0.892-1.099-0.892c-0.642,0-3.146,0-3.146,0S6.766,5.732,6.766,5.091c0-0.553-0.306-1.047-0.917-1.047 c-0.57,0-0.85,0.433-0.85,1.129c0,0.927,0,2.161,0,4.088C4.999,11.267,6.114,11.97,7.912,11.97z"/></g></svg>
